X: 65
T: Mai luobe
%%abc-version 2.0
%%abcx-abcm2ps-target-version 5.9.1 (29 Sep 2008)
%%abc-creator hum2abc beta
%%abcx-conversion-date 2013/10/02 07:52:29
%%abc-edited-by Helmut Schaffrath
%%humdrum-veritas 3449294758
%%humdrum-veritas-data 1869717030
%%continueall 1
%%barnumbers 0
L: 1/8
M: 2/4
K: F
d f G A [I:setbarnb 1]| 
d f G A | 
c G/ A/c2 | 
E E/ D/C2 | 
c c d f | 
c E G c/ c/ | 
A E/ E/ F/ G/ E/ D/ | 
C4 | 
F F F D | 
c3A | 
d f c/ d/ c/ A/ | 
G FG2 | 
c G/ A/c2 | 
c> f d c | 
A> d F F/ G/ | 
A c/ A/ G A | 
F> G A E/ D/ | 
C4 |]  



